X: 221
T: Mudanhua chuanzaolin
%%abc-version 2.0
%%abcx-abcm2ps-target-version 5.9.1 (29 Sep 2008)
%%abc-creator hum2abc beta
%%abcx-conversion-date 2013/10/02 07:52:29
%%abc-edited-by Helmut Schaffrath
%%humdrum-veritas 1966806166
%%humdrum-veritas-data 340447347
%%continueall 1
%%barnumbers 0
L: 1/8
M: 2/4
K: C
c c d [I:setbarnb 1]| 
g d c d | 
[M:3/8]g e g | 
c2A | 
c c c/ d/ | 
[M:2/4]g B d d | 
c B A G | 
D4 | 
G G/ G/ c c/ c/ | 
d g f e | 
g d/ e/ d c/ d/ | 
c EG2 | 
z c c c/ d/ | 
c B A G | 
c c/ d/ c B | 
A GD2 |]  



